flaticon/programming-line/code-rate.svg

<svg xmlns="http://www.w3.org/2000/svg" width="32" height="32" viewBox="0 0 24 24">
    <path d="M 13.972656 12.328125 L 18.117188 6.609375 C 18.226562 6.460938 18.207031 6.253906 18.078125 6.121094 C 17.949219 5.992188 17.742188 5.976562 17.589844 6.082031 L 11.871094 10.226562 C 10.839844 10.292969 10.019531 11.152344 10.019531 12.199219 C 10.019531 13.292969 10.910156 14.179688 12 14.179688 C 13.046875 14.179688 13.910156 13.359375 13.972656 12.328125 Z M 13.773438 11.324219 C 13.582031 10.9375 13.265625 10.621094 12.875 10.425781 L 16.128906 8.070312 Z M 10.773438 12.199219 C 10.773438 11.523438 11.324219 10.972656 12 10.972656 C 12.675781 10.972656 13.226562 11.523438 13.226562 12.199219 C 13.226562 12.878906 12.675781 13.429688 12 13.429688 C 11.324219 13.429688 10.773438 12.878906 10.773438 12.199219 Z M 10.773438 12.199219"/>
    <path d="M 24 12.195312 C 24 12.023438 23.996094 11.851562 23.988281 11.679688 C 23.929688 10.292969 23.628906 8.941406 23.105469 7.671875 C 23.101562 7.652344 23.09375 7.628906 23.085938 7.609375 C 23.078125 7.585938 23.066406 7.5625 23.050781 7.542969 C 22.46875 6.175781 21.628906 4.910156 20.5625 3.816406 C 20.558594 3.816406 20.558594 3.8125 20.554688 3.808594 C 20.535156 3.777344 20.515625 3.742188 20.484375 3.714844 C 20.457031 3.6875 20.425781 3.664062 20.390625 3.644531 C 19.292969 2.570312 18.019531 1.722656 16.640625 1.136719 C 16.625 1.128906 16.609375 1.121094 16.59375 1.113281 C 16.578125 1.105469 16.558594 1.101562 16.542969 1.097656 C 15.351562 0.605469 14.082031 0.308594 12.777344 0.226562 C 12.523438 0.207031 12.269531 0.203125 12.015625 0.199219 C 12.011719 0.199219 12.003906 0.199219 12 0.199219 C 11.996094 0.199219 11.988281 0.199219 11.984375 0.203125 C 10.5625 0.203125 9.175781 0.449219 7.847656 0.9375 C 6.335938 1.496094 4.96875 2.339844 3.789062 3.449219 C 3.699219 3.535156 3.609375 3.621094 3.523438 3.707031 C 3.519531 3.710938 3.515625 3.710938 3.515625 3.714844 C 3.511719 3.71875 3.507812 3.722656 3.503906 3.726562 C 2.457031 4.777344 1.621094 5.992188 1.019531 7.351562 C 0.34375 8.882812 0 10.515625 0 12.199219 C 0 14.613281 0.714844 16.941406 2.066406 18.933594 C 2.433594 19.46875 3.046875 19.792969 3.703125 19.792969 L 4.382812 19.792969 C 4.589844 19.792969 4.761719 19.621094 4.761719 19.414062 C 4.761719 19.207031 4.589844 19.039062 4.382812 19.039062 L 3.703125 19.039062 C 3.292969 19.039062 2.914062 18.839844 2.691406 18.507812 C 2.328125 17.980469 2.019531 17.425781 1.757812 16.851562 L 2.886719 16.382812 C 3.078125 16.304688 3.167969 16.082031 3.089844 15.890625 C 3.007812 15.699219 2.789062 15.609375 2.597656 15.6875 L 1.46875 16.15625 C 1.039062 15.015625 0.796875 13.808594 0.757812 12.578125 L 1.980469 12.578125 C 2.1875 12.578125 2.355469 12.40625 2.355469 12.199219 C 2.355469 11.992188 2.1875 11.824219 1.980469 11.824219 L 0.757812 11.824219 C 0.796875 10.589844 1.035156 9.390625 1.46875 8.246094 L 2.597656 8.710938 C 2.644531 8.730469 2.695312 8.742188 2.742188 8.742188 C 2.890625 8.742188 3.027344 8.652344 3.089844 8.507812 C 3.167969 8.316406 3.078125 8.097656 2.886719 8.019531 L 1.753906 7.550781 C 2.265625 6.429688 2.945312 5.414062 3.785156 4.515625 L 4.648438 5.378906 C 4.722656 5.453125 4.816406 5.492188 4.914062 5.492188 C 5.011719 5.492188 5.105469 5.453125 5.179688 5.378906 C 5.328125 5.234375 5.328125 4.996094 5.179688 4.847656 L 4.316406 3.984375 C 5.226562 3.132812 6.25 2.449219 7.347656 1.949219 L 7.816406 3.085938 C 7.878906 3.230469 8.019531 3.316406 8.164062 3.316406 C 8.214844 3.316406 8.261719 3.308594 8.308594 3.289062 C 8.5 3.210938 8.59375 2.988281 8.511719 2.796875 L 8.042969 1.664062 C 9.179688 1.238281 10.382812 0.996094 11.625 0.957031 L 11.625 2.179688 C 11.625 2.386719 11.792969 2.554688 12 2.554688 C 12.207031 2.554688 12.375 2.386719 12.375 2.179688 L 12.375 0.957031 C 12.492188 0.960938 12.613281 0.96875 12.730469 0.976562 C 13.839844 1.046875 14.925781 1.28125 15.953125 1.671875 L 15.488281 2.796875 C 15.410156 2.992188 15.5 3.210938 15.691406 3.289062 C 15.738281 3.308594 15.785156 3.316406 15.835938 3.316406 C 15.980469 3.316406 16.121094 3.230469 16.183594 3.085938 L 16.648438 1.960938 C 17.746094 2.46875 18.769531 3.152344 19.671875 3.996094 L 18.820312 4.847656 C 18.671875 4.996094 18.671875 5.234375 18.820312 5.378906 C 18.894531 5.453125 18.988281 5.492188 19.085938 5.492188 C 19.183594 5.492188 19.277344 5.453125 19.351562 5.378906 L 20.203125 4.527344 C 21.046875 5.433594 21.730469 6.457031 22.234375 7.554688 L 21.113281 8.019531 C 20.921875 8.097656 20.832031 8.316406 20.910156 8.507812 C 20.972656 8.652344 21.109375 8.742188 21.257812 8.742188 C 21.304688 8.742188 21.355469 8.730469 21.402344 8.710938 L 22.523438 8.246094 C 22.945312 9.351562 23.1875 10.519531 23.238281 11.710938 C 23.238281 11.75 23.242188 11.789062 23.242188 11.824219 L 22.019531 11.824219 C 21.8125 11.824219 21.644531 11.992188 21.644531 12.199219 C 21.644531 12.40625 21.8125 12.574219 22.019531 12.574219 L 23.242188 12.574219 C 23.203125 13.8125 22.960938 15.015625 22.53125 16.15625 L 21.402344 15.6875 C 21.210938 15.609375 20.992188 15.699219 20.910156 15.890625 C 20.832031 16.082031 20.921875 16.304688 21.113281 16.382812 L 22.242188 16.851562 C 21.980469 17.425781 21.671875 17.980469 21.308594 18.507812 C 21.085938 18.839844 20.707031 19.039062 20.296875 19.039062 L 19.617188 19.039062 C 19.410156 19.039062 19.238281 19.207031 19.238281 19.414062 C 19.238281 19.621094 19.410156 19.792969 19.617188 19.792969 L 20.296875 19.792969 C 20.953125 19.792969 21.566406 19.46875 21.933594 18.933594 C 23.289062 16.933594 24 14.617188 24 12.207031 C 24 12.203125 24 12.203125 24 12.199219 C 24 12.199219 24 12.199219 24 12.195312 Z M 24 12.195312"/>
    <path d="M 16.410156 15.03125 L 7.589844 15.03125 C 6.5 15.03125 5.613281 15.917969 5.613281 17.011719 L 5.613281 21.820312 C 5.613281 22.910156 6.5 23.800781 7.589844 23.800781 L 16.410156 23.800781 C 17.5 23.800781 18.386719 22.910156 18.386719 21.820312 L 18.386719 17.011719 C 18.386719 15.917969 17.5 15.03125 16.410156 15.03125 Z M 17.636719 21.820312 C 17.636719 22.496094 17.085938 23.046875 16.410156 23.046875 L 7.589844 23.046875 C 6.914062 23.046875 6.363281 22.496094 6.363281 21.820312 L 6.363281 17.011719 C 6.363281 16.332031 6.914062 15.78125 7.589844 15.78125 L 16.410156 15.78125 C 17.085938 15.78125 17.636719 16.332031 17.636719 17.011719 Z M 17.636719 21.820312"/>
    <path d="M10.261719 17.144531C10.113281 17 9.875 17 9.730469 17.144531L7.726562 19.148438C7.578125 19.296875 7.578125 19.535156 7.726562 19.679688L9.730469 21.683594C9.804688 21.757812 9.898438 21.796875 9.996094 21.796875 10.09375 21.796875 10.1875 21.757812 10.261719 21.683594 10.410156 21.539062 10.410156 21.300781 10.261719 21.152344L8.523438 19.414062 10.261719 17.675781C10.410156 17.53125 10.410156 17.292969 10.261719 17.144531zM14.269531 17.144531C14.125 17 13.886719 17 13.738281 17.144531 13.589844 17.292969 13.589844 17.53125 13.738281 17.675781L15.476562 19.414062 13.738281 21.152344C13.589844 21.300781 13.589844 21.539062 13.738281 21.683594 13.8125 21.757812 13.90625 21.796875 14.003906 21.796875 14.101562 21.796875 14.195312 21.757812 14.269531 21.683594L16.273438 19.679688C16.421875 19.535156 16.421875 19.296875 16.273438 19.148438zM12 19.839844C11.902344 19.839844 11.804688 19.882812 11.734375 19.953125 11.664062 20.019531 11.625 20.117188 11.625 20.21875 11.625 20.316406 11.664062 20.414062 11.734375 20.484375 11.804688 20.554688 11.902344 20.59375 12 20.59375 12.097656 20.59375 12.195312 20.554688 12.265625 20.484375 12.335938 20.414062 12.375 20.316406 12.375 20.21875 12.375 20.117188 12.335938 20.019531 12.265625 19.953125 12.195312 19.882812 12.097656 19.839844 12 19.839844zM13.203125 19.839844C13.105469 19.839844 13.007812 19.882812 12.9375 19.953125 12.867188 20.019531 12.828125 20.117188 12.828125 20.21875 12.828125 20.316406 12.867188 20.414062 12.9375 20.484375 13.007812 20.554688 13.105469 20.59375 13.203125 20.59375 13.300781 20.59375 13.398438 20.554688 13.46875 20.484375 13.539062 20.414062 13.578125 20.316406 13.578125 20.21875 13.578125 20.117188 13.539062 20.019531 13.46875 19.953125 13.398438 19.882812 13.300781 19.839844 13.203125 19.839844zM10.796875 19.839844C10.699219 19.839844 10.601562 19.882812 10.53125 19.953125 10.460938 20.019531 10.421875 20.117188 10.421875 20.21875 10.421875 20.316406 10.460938 20.414062 10.53125 20.484375 10.601562 20.554688 10.699219 20.59375 10.796875 20.59375 10.894531 20.59375 10.992188 20.554688 11.0625 20.484375 11.132812 20.414062 11.171875 20.316406 11.171875 20.21875 11.171875 20.117188 11.132812 20.019531 11.0625 19.953125 10.992188 19.882812 10.894531 19.839844 10.796875 19.839844zM10.796875 19.839844"/>
</svg>

<svg xmlns="http://www.w3.org/2000/svg" width="32" height="32" viewBox="0 0 24 24">
    <path d="M13.973 12.328l4.144-5.719a.38.38 0 0 0-.039-.488.384.384 0 0 0-.488-.039l-5.719 4.145a1.981 1.981 0 0 0-1.851 1.972 1.979 1.979 0 1 0 3.953.129zm-.2-1.004a2 2 0 0 0-.898-.898l3.254-2.356zm-3 .875c0-.676.551-1.226 1.227-1.226a1.229 1.229 0 0 1 0 2.457 1.23 1.23 0 0 1-1.227-1.23zm0 0"/>
    <path d="M24 12.195a11.806 11.806 0 0 0-.895-4.523.384.384 0 0 0-.054-.129 12.17 12.17 0 0 0-2.488-3.727c-.004 0-.004-.003-.008-.007-.02-.032-.04-.067-.07-.094a.42.42 0 0 0-.094-.07 12.17 12.17 0 0 0-3.75-2.508l-.047-.024c-.016-.008-.035-.011-.051-.015a11.793 11.793 0 0 0-3.766-.871c-.254-.02-.507-.024-.761-.028H12c-.004 0-.012 0-.016.004a11.928 11.928 0 0 0-8.46 3.504c-.004.004-.008.004-.008.008l-.012.012A11.939 11.939 0 0 0 0 12.2c0 2.413.715 4.741 2.066 6.734.368.535.98.859 1.637.859h.68a.382.382 0 0 0 .379-.379.378.378 0 0 0-.38-.375h-.679c-.41 0-.789-.2-1.012-.531a10.828 10.828 0 0 1-.933-1.656l1.129-.47a.378.378 0 0 0 .203-.491.38.38 0 0 0-.492-.204l-1.13.47a11.148 11.148 0 0 1-.71-3.579H1.98a.378.378 0 0 0 .375-.379.375.375 0 0 0-.375-.375H.758c.039-1.234.277-2.433.71-3.578l1.13.465c.047.02.097.031.144.031a.38.38 0 0 0 .348-.234.374.374 0 0 0-.203-.488l-1.133-.47a11.287 11.287 0 0 1 2.031-3.034l.863.863a.373.373 0 0 0 .266.113c.098 0 .191-.039.266-.113a.373.373 0 0 0 0-.531l-.864-.864A11.283 11.283 0 0 1 7.348 1.95l.468 1.137a.38.38 0 0 0 .493.203.375.375 0 0 0 .203-.492l-.469-1.133a11.189 11.189 0 0 1 3.582-.707V2.18a.375.375 0 0 0 .75 0V.957c.117.004.238.012.355.02 1.11.07 2.196.304 3.223.695l-.465 1.125a.377.377 0 0 0 .348.52.38.38 0 0 0 .348-.231l.464-1.125a11.491 11.491 0 0 1 3.024 2.035l-.852.852a.373.373 0 0 0 0 .53.373.373 0 0 0 .266.114c.098 0 .191-.039.266-.113l.851-.852c.844.907 1.527 1.93 2.031 3.028l-1.12.465a.374.374 0 0 0-.204.488.38.38 0 0 0 .348.234.385.385 0 0 0 .144-.031l1.121-.465c.422 1.106.665 2.274.715 3.465 0 .039.004.078.004.113H22.02a.375.375 0 0 0 0 .75h1.222a11.13 11.13 0 0 1-.71 3.582l-1.13-.468a.38.38 0 0 0-.492.203.378.378 0 0 0 .203.492l1.13.469c-.263.574-.571 1.128-.934 1.656a1.213 1.213 0 0 1-1.012.531h-.68a.378.378 0 0 0-.379.375c0 .207.172.379.38.379h.679c.656 0 1.27-.324 1.637-.86A11.92 11.92 0 0 0 24 12.208v-.008-.004zm0 0"/>
    <path d="M16.41 15.031H7.59a1.98 1.98 0 0 0-1.977 1.98v4.81c0 1.09.887 1.98 1.977 1.98h8.82c1.09 0 1.977-.89 1.977-1.98v-4.81a1.98 1.98 0 0 0-1.977-1.98zm1.227 6.79c0 .675-.551 1.226-1.227 1.226H7.59c-.676 0-1.227-.55-1.227-1.227v-4.808c0-.68.551-1.23 1.227-1.23h8.82c.676 0 1.227.55 1.227 1.23zm0 0"/>
    <path d="M10.262 17.145a.38.38 0 0 0-.532 0l-2.003 2.003a.373.373 0 0 0 0 .532l2.003 2.004a.373.373 0 0 0 .266.113c.098 0 .191-.04.266-.113a.373.373 0 0 0 0-.532l-1.739-1.738 1.739-1.738a.373.373 0 0 0 0-.531zm0 0M14.27 17.145a.38.38 0 0 0-.532 0 .373.373 0 0 0 0 .53l1.739 1.74-1.739 1.737a.373.373 0 0 0 0 .532.373.373 0 0 0 .266.113c.098 0 .191-.04.266-.113l2.003-2.004a.373.373 0 0 0 0-.532zm0 0M12 19.84a.383.383 0 0 0-.375.379c0 .097.04.195.11.265a.379.379 0 0 0 .53 0A.379.379 0 0 0 12 19.84zm0 0"/>
    <path d="M13.203 19.84a.383.383 0 0 0-.375.379c0 .097.04.195.11.265a.379.379 0 0 0 .53 0 .379.379 0 0 0-.265-.644zm0 0M10.797 19.84a.383.383 0 0 0-.375.379c0 .097.039.195.11.265a.379.379 0 0 0 .53 0 .379.379 0 0 0-.265-.644zm0 0"/>
</svg>
